X:47
T: Nincsen csillag
O: Lészped (Bákó), 1932
Q: 1/4=88
M:4/4
L:1/4
K:D
D/D/F/F/ A/A/F/E/ | F/D/F/E/ | D2 D/ z/ z | 
A/A/d/d/ e/<e/d/B/ | (3:2:2 BG/ B/B/ | A2 A/ z/ z | 
d/d/B/B/ A/A/ F/ z/ | (3:2:2 A/ A G/G/ F/F/ E/ z/ | 
(3:2:2 DD/ F/F/ A/A/G/E/ | (3:2:2 F/D F/E/ | D D/ z/ z |

